(demo_plate pocketing - GRBL)
G21
G90
G94
G17
G54
M3 S12000
G0 Z5.000
G0 X2.000 Y2.000
G1 Z-0.500 F300.0
G1 X18.000 F600.0
G1 Y18.000
G1 X2.000
G1 Y2.000
G1 Z-1.000 F300.0
G1 X18.000 F600.0
G1 Y18.000
G1 X2.000
G1 Y2.000
G0 Z5.000
G0 X10.000 Y10.000
M5
G0 Z20.000
G0 X0 Y0
M2
