%
O0001 (DEMO PLATE - FANUC)
G21 G17 G40 G49 G80 G90
G54
S12000 M3
G0 X2.0 Y2.0 Z5.0
G1 Z-0.5 F300.
G1 X18.0 F600.
G1 Y18.0
G1 X2.0
G1 Y2.0
G1 Z-1.0 F300.
G1 X18.0 F600.
G1 Y18.0
G1 X2.0
G1 Y2.0
G0 Z5.0
G0 X10.0 Y10.0
M5
G0 Z100.0
G28 U0 V0 W0
M30
%
